cssgg/arrow-left-o.svg

<svg
  width="24"
  height="24"
  viewBox="0 0 24 24"
  fill="none"
  xmlns="http://www.w3.org/2000/svg"
>
  <path
    d="M11.9481 14.8285L10.5339 16.2427L6.29122 12L10.5339 7.7574L11.9481 9.17161L10.1196 11H17.6568V13H10.1196L11.9481 14.8285Z"
    fill="currentColor"
  />
  <path
    fill-rule="evenodd"
    clip-rule="evenodd"
    d="M4.22183 19.7782C-0.0739419 15.4824 -0.0739419 8.51759 4.22183 4.22183C8.51759 -0.0739419 15.4824 -0.0739419 19.7782 4.22183C24.0739 8.51759 24.0739 15.4824 19.7782 19.7782C15.4824 24.0739 8.51759 24.0739 4.22183 19.7782ZM5.63604 18.364C2.12132 14.8492 2.12132 9.15076 5.63604 5.63604C9.15076 2.12132 14.8492 2.12132 18.364 5.63604C21.8787 9.15076 21.8787 14.8492 18.364 18.364C14.8492 21.8787 9.15076 21.8787 5.63604 18.364Z"
    fill="currentColor"
  />
</svg>

<svg viewBox="0 0 24 24" xmlns="http://www.w3.org/2000/svg"><g><path d="M11.94 14.82l-1.42 1.41 -4.25-4.25 4.24-4.25 1.41 1.41 -1.83 1.82h7.53v2h-7.54l1.82 1.82Z"/><path fill-rule="evenodd" d="M4.22 19.77c-4.3-4.3-4.3-11.27 0-15.56 4.29-4.3 11.26-4.3 15.55 0 4.29 4.29 4.29 11.26 0 15.55 -4.3 4.29-11.27 4.29-15.56 0Zm1.41-1.42c-3.52-3.52-3.52-9.22 0-12.73 3.51-3.52 9.21-3.52 12.72 0 3.51 3.51 3.51 9.21 0 12.72 -3.52 3.51-9.22 3.51-12.73 0Z"/></g></svg>
